X:1
T: Tom and Jerry
C: R-66
C: Old-Time
M: C|
Z:
R: breakdown
K: A
%
cB| "A"A2c2 "E7"B2cB| "A"A2c2 "E7"B2cd| "A"e2f2 afed|1 c2e2 "E7"e2cB:|2 "E7"c2B2 "A"A2 |]
|: \
"A"c3B cBA2| "D"f3e fga2| "A"c2e2- e2ef|1 ec3 "E7"B4:|2 "A"ea3 a4 |]
%
